**harmony	**harte	**kern	**silbe	**rhyme	**timestamp	**phrase	**leadinstrument
*M4/4	*M4/4	*ICvox	*	*	*	*	*
*	*	*VRlead	*	*	*	*	*
*	*	*Hstimme	*	*	*	*	*
*D:	*D:	*D:	*	*	*	*	*
*	*	*M4/4	*	*	*	*	*
*	*	*clefG2	*	*	*	*	*
1r;	1r	r;	.	.	0	.	r
=1	=1	=1	=1	=1	=1	=1	=1
*>Letter>A	*>Letter>A	*>Letter>A	*>Letter>A	*>Letter>A	*>Letter>A	*>Letter>A	*>Letter>A
*>Label>Intro	*>Label>Intro	*>Label>Intro	*>Label>Intro	*>Label>Intro	*>Label>Intro	*>Label>Intro	*>Label>Intro
1Em	E:min	1r	.	.	0.372	newline	guitar
=2	=2	=2	=2	=2	=2	=2	=2
1Em	E:min	1r	.	.	2.439	.	guitar
=3	=3	=3	=3	=3	=3	=3	=3
1Em	E:min	1r	.	.	4.506	.	guitar
=4	=4	=4	=4	=4	=4	=4	=4
1Em	E:min	2r	.	.	6.573	.	guitar
.	.	4r	.	.	.	.	.
.	.	8B	Well	.	.	.	.
.	.	8d	she's	.	.	.	.
=5	=5	=5	=5	=5	=5	=5	=5
*>Letter>B	*>Letter>B	*>Letter>B	*>Letter>B	*>Letter>B	*>Letter>B	*>Letter>B	*>Letter>B
*>Label>Verse	*>Label>Verse	*>Label>Verse	*>Label>Verse	*>Label>Verse	*>Label>Verse	*>Label>Verse	*>Label>Verse
1Em	E:min	8e	all	.	8.64	newline	voice
.	.	8e	you'd	.	.	.	.
.	.	8e	e-	.	.	.	.
.	.	8d	-ver	.	.	.	.
.	.	8e	want	A	.	.	.
.	.	8r	.	.	.	.	.
.	.	8B	She's	.	.	.	.
.	.	8d	the	.	.	.	.
=6	=6	=6	=6	=6	=6	=6	=6
1Em	E:min	8e	kind	.	10.582	.	voice
.	.	8e	I	.	.	.	.
.	.	8e	like	.	.	.	.
.	.	8d	to	.	.	.	.
.	.	8e	flaunt	A	.	.	.
.	.	8B	and	.	.	.	.
.	.	8d	take	.	.	.	.
.	.	8B	to	.	.	.	.
=7	=7	=7	=7	=7	=7	=7	=7
1DMM	D:maj7	4d	di-	(B	12.523	.	voice
.	.	8B	-nner	b)	.	.	.
.	.	8r	.	.	.	.	.
.	.	2r	.	.	.	.	.
=8	=8	=8	=8	=8	=8	=8	=8
1DMM	D:maj7	2r	.	.	14.465	.	voice
.	.	4r	.	.	.	.	.
.	.	8B	But	.	.	.	.
.	.	8d	she	.	.	.	.
=9	=9	=9	=9	=9	=9	=9	=9
1Em	E:min	8e	al-	.	16.406	newline	voice
.	.	8e	-ways	.	.	.	.
.	.	8e	knows	.	.	.	.
.	.	8d	her	.	.	.	.
.	.	8e	place	C	.	.	.
.	.	8r	.	.	.	.	.
.	.	8B	She's	.	.	.	.
.	.	8d	got	.	.	.	.
=10	=10	=10	=10	=10	=10	=10	=10
1Em	E:min	4f#	style	.	18.319	.	voice
.	.	8e	She's	.	.	.	.
.	.	8d	got	.	.	.	.
.	.	8e	grace	C	.	.	.
.	.	8r	.	.	.	.	.
.	.	8d	She's	.	.	.	.
.	.	8B	a	.	.	.	.
=11	=11	=11	=11	=11	=11	=11	=11
1DMM	D:maj7	4d	wi-	(B	20.231	.	voice
.	.	8B	-nner	b)	.	.	.
.	.	8r	.	.	.	.	.
.	.	2r	.	.	.	.	.
=12	=12	=12	=12	=12	=12	=12	=12
1DMM	D:maj7	2r	.	.	22.144	.	voice
.	.	4r	.	.	.	.	.
.	.	8B	She's	.	.	.	.
.	.	8d	a	.	.	.	.
=13	=13	=13	=13	=13	=13	=13	=13
*>Letter>C	*>Letter>C	*>Letter>C	*>Letter>C	*>Letter>C	*>Letter>C	*>Letter>C	*>Letter>C
*>Label>Chorus	*>Label>Chorus	*>Label>Chorus	*>Label>Chorus	*>Label>Chorus	*>Label>Chorus	*>Label>Chorus	*>Label>Chorus
1Em	E:min	4e	la-	.	24.056	newline	voice
.	.	8~e	-dy	.	.	.	.
.	.	8r	.	.	.	.	.
.	.	2r	.	.	.	.	.
=14	=14	=14	=14	=14	=14	=14	=14
1AM	A:sus4(b7,9)	8f#	Yo	.	26.01	.	voice
.	.	8e	_	.	.	.	.
.	.	8e	oh	.	.	.	.
.	.	8d	_	.	.	.	.
.	.	4d	oh	.	.	.	.
.	.	8d	she's	.	.	.	.
.	.	8B	a	.	.	.	.
=15	=15	=15	=15	=15	=15	=15	=15
1DMM	D:maj7	4d	la-	.	27.963	.	voice
.	.	8~d	-dy	.	.	.	.
.	.	8r	.	.	.	.	.
.	.	2r	.	.	.	.	.
=16	=16	=16	=16	=16	=16	=16	=16
1DMM	D:maj7	8A	Talk-	.	29.917	.	voice
.	.	8B	-ing	.	.	.	.
.	.	8d	a-	.	.	.	.
.	.	4d	-bout	.	.	.	.
.	.	8B	that	.	.	.	.
.	.	8d	li-	.	.	.	.
.	.	8B	-ttle	.	.	.	.
=17	=17	=17	=17	=17	=17	=17	=17
1Em	E:min	4e	la-	.	31.87	newline	voice
.	.	8~e	-dy	.	.	.	.
.	.	8r	.	.	.	.	.
.	.	2r	.	.	.	.	.
=18	=18	=18	=18	=18	=18	=18	=18
1AM	A:sus4(b7,9)	4r	.	.	33.824	.	voice
.	.	8A	and	.	.	.	.
.	.	8B	the	.	.	.	.
.	.	8B	la-	.	.	.	.
.	.	8d	-dy	.	.	.	.
.	.	8d	is	.	.	.	.
.	.	8B	uh	.	.	.	.
=19	=19	=19	=19	=19	=19	=19	=19
1Bm	B:min	16d	mine	.	35.777	.	voice
.	.	16A	_	.	.	.	.
.	.	[4.B	_	.	.	.	.
.	.	2B]	_	.	.	.	.
=20	=20	=20	=20	=20	=20	=20	=20
1Bm	B:min	2r	.	.	37.731	.	voice
.	.	4r	.	.	.	.	.
.	.	8B	Well	.	.	.	.
.	.	8d	she's	.	.	.	.
=21	=21	=21	=21	=21	=21	=21	=21
*>Letter>B	*>Letter>B	*>Letter>B	*>Letter>B	*>Letter>B	*>Letter>B	*>Letter>B	*>Letter>B
*>Label>Verse	*>Label>Verse	*>Label>Verse	*>Label>Verse	*>Label>Verse	*>Label>Verse	*>Label>Verse	*>Label>Verse
1Em	E:min	8e	ne-	.	39.685	newline	voice
.	.	8e	-ver	.	.	.	.
.	.	8e	in	.	.	.	.
.	.	8d	the	.	.	.	.
.	.	8e	way	C	.	.	.
.	.	8r	.	.	.	.	.
.	.	8B	Al-	.	.	.	.
.	.	8d	-ways	.	.	.	.
=22	=22	=22	=22	=22	=22	=22	=22
1Em	E:min	8f#	some-	.	41.628	.	voice
.	.	8e	-thing	.	.	.	.
.	.	8d	nice	.	.	.	.
.	.	8d	to	.	.	.	.
.	.	8e	say	C	.	.	.
.	.	8d	_	.	.	.	.
.	.	8d	What	.	.	.	.
.	.	8B	a	.	.	.	.
=23	=23	=23	=23	=23	=23	=23	=23
1DMM	D:maj7	4d	bless-	(D	43.571	.	voice
.	.	8B	-ing	d)	.	.	.
.	.	8r	.	.	.	.	.
.	.	2r	.	.	.	.	.
=24	=24	=24	=24	=24	=24	=24	=24
1DMM	D:maj7	2r	.	.	45.514	.	voice
.	.	4r	.	.	.	.	.
.	.	8B	I	.	.	.	.
.	.	8d	can	.	.	.	.
=25	=25	=25	=25	=25	=25	=25	=25
1Em	E:min	8e	leave	.	47.457	newline	voice
.	.	8e	her	.	.	.	.
.	.	8e	on	.	.	.	.
.	.	8d	her	.	.	.	.
.	.	8e	own	E	.	.	.
.	.	8d	_	.	.	.	.
.	.	8B	know-	.	.	.	.
.	.	8d	-in'	.	.	.	.
=26	=26	=26	=26	=26	=26	=26	=26
1Em	E:min	8f#	she's	.	49.403	.	voice
.	.	8e	o-	.	.	.	.
.	.	8d	-kay	.	.	.	.
.	.	8d	a-	.	.	.	.
.	.	8e	-lone	E	.	.	.
.	.	8B	and	.	.	.	.
.	.	8d	there's	.	.	.	.
.	.	8d	no	.	.	.	.
=27	=27	=27	=27	=27	=27	=27	=27
1DMM	D:maj7	4d	mess-	(D	51.349	.	voice
.	.	8B	-ing	d)	.	.	.
.	.	8r	.	.	.	.	.
.	.	2r	.	.	.	.	.
=28	=28	=28	=28	=28	=28	=28	=28
1DMM	D:maj7	2r	.	.	53.295	.	voice
.	.	4r	.	.	.	.	.
.	.	8B	She's	.	.	.	.
.	.	8d	a	.	.	.	.
=29	=29	=29	=29	=29	=29	=29	=29
*>Letter>C	*>Letter>C	*>Letter>C	*>Letter>C	*>Letter>C	*>Letter>C	*>Letter>C	*>Letter>C
*>Label>Chorus	*>Label>Chorus	*>Label>Chorus	*>Label>Chorus	*>Label>Chorus	*>Label>Chorus	*>Label>Chorus	*>Label>Chorus
1Em	E:min	4e	la-	.	55.241	newline	voice
.	.	8~e	-dy	.	.	.	.
.	.	8r	.	.	.	.	.
.	.	2r	.	.	.	.	.
=30	=30	=30	=30	=30	=30	=30	=30
1AM	A:sus4(b7,9)	8f#	Yo	.	57.205	.	voice
.	.	8e	_	.	.	.	.
.	.	8e	oh	.	.	.	.
.	.	8d	_	.	.	.	.
.	.	4d	oh	.	.	.	.
.	.	8d	she's	.	.	.	.
.	.	8B	a	.	.	.	.
=31	=31	=31	=31	=31	=31	=31	=31
1DMM	D:maj7	4d	la-	.	59.17	.	voice
.	.	8~d	-dy	.	.	.	.
.	.	8r	.	.	.	.	.
.	.	2r	.	.	.	.	.
=32	=32	=32	=32	=32	=32	=32	=32
1DMM	D:maj7	8A	Talk-	.	61.134	.	voice
.	.	8B	-ing	.	.	.	.
.	.	8d	a-	.	.	.	.
.	.	4d	-bout	.	.	.	.
.	.	8B	that	.	.	.	.
.	.	8d	li-	.	.	.	.
.	.	8B	-ttle	.	.	.	.
=33	=33	=33	=33	=33	=33	=33	=33
1Em	E:min	4e	la-	.	63.099	newline	voice
.	.	8~e	-dy	.	.	.	.
.	.	8r	.	.	.	.	.
.	.	2r	.	.	.	.	.
=34	=34	=34	=34	=34	=34	=34	=34
1AM	A:sus4(b7,9)	4r	.	.	65.061	.	voice
.	.	8A	and	.	.	.	.
.	.	8B	the	.	.	.	.
.	.	8B	la-	.	.	.	.
.	.	8d	-dy	.	.	.	.
.	.	8d	is	.	.	.	.
.	.	8B	uh	.	.	.	.
=35	=35	=35	=35	=35	=35	=35	=35
1Bm	B:min	16d	mine	.	67.023	.	voice
.	.	16A	_	.	.	.	.
.	.	[4.B	_	.	.	.	.
.	.	2B]	_	.	.	.	.
=36	=36	=36	=36	=36	=36	=36	=36
1Bm	B:min	2r	.	.	68.985	.	voice
.	.	4r	.	.	.	.	.
.	.	8c	Well	.	.	.	.
.	.	8c	she	.	.	.	.
=37	=37	=37	=37	=37	=37	=37	=37
*>Letter>D	*>Letter>D	*>Letter>D	*>Letter>D	*>Letter>D	*>Letter>D	*>Letter>D	*>Letter>D
*>Label>Bridge	*>Label>Bridge	*>Label>Bridge	*>Label>Bridge	*>Label>Bridge	*>Label>Bridge	*>Label>Bridge	*>Label>Bridge
*B-:	*B-:	*B-:	*	*	*B-:	*B-:	*B-:
2B-M	B-:maj	8d	ne-	.	70.947	newline	voice
.	.	8d	-ver	.	.	.	.
.	.	8d	asks	.	.	.	.
.	.	8r	.	.	.	.	.
2FM	F:maj/3	8c	ve-	.	71.92	.	voice
.	.	16c	-ry	.	.	.	.
.	.	8.c	much	.	.	.	.
.	.	8r	.	.	.	.	.
=38	=38	=38	=38	=38	=38	=38	=38
2E-M	E-:maj	8e-	and	.	72.893	.	voice
.	.	8e-	I	.	.	.	.
.	.	8e-	don't	.	.	.	.
.	.	16e-	re-	.	.	.	.
.	.	16d	-fuse	F	.	.	.
2B-M	B-:maj	8B-	_	.	73.866	.	voice
.	.	8B-	her	.	.	.	.
.	.	4r	.	.	.	.	.
=39	=39	=39	=39	=39	=39	=39	=39
2B-M	B-:maj	8d	Al-	.	74.839	.	voice
.	.	8d	-ways	.	.	.	.
.	.	8d	treat	.	.	.	.
.	.	8d	her	.	.	.	.
2FM	F:maj/3	8c	with	.	75.813	.	voice
.	.	16c	re-	.	.	.	.
.	.	8.c	-spect	.	.	.	.
.	.	16r	.	.	.	.	.
.	.	16c	I	.	.	.	.
=40	=40	=40	=40	=40	=40	=40	=40
2E-M	E-:maj	8e-	ne-	.	76.786	.	voice
.	.	8e-	-ver	.	.	.	.
.	.	8e-	would	.	.	.	.
.	.	16e-	a-	.	.	.	.
.	.	16d	-buse	F	.	.	.
2B-M	B-:maj	8B-	_	.	77.759	.	voice
.	.	8B-	her	.	.	.	.
.	.	4r	.	.	.	.	.
=41	=41	=41	=41	=41	=41	=41	=41
2B-M	B-:maj	8d	What	.	78.732	newline	voice
.	.	8d	she's	.	.	.	.
.	.	8d	got	.	.	.	.
.	.	8d	is	.	.	.	.
2FM	F:maj/3	8c	hard	.	79.706	.	voice
.	.	16c	to	.	.	.	.
.	.	8.c	find	.	.	.	.
.	.	16r	.	.	.	.	.
.	.	16c	and	.	.	.	.
=42	=42	=42	=42	=42	=42	=42	=42
2E-M	E-:maj	8e-	I	.	80.68	.	voice
.	.	8e-	don't	.	.	.	.
.	.	8e-	want	.	.	.	.
.	.	16e-	to	.	.	.	.
.	.	16d	lose	F	.	.	.
2B-M	B-:maj	8B-	_	.	81.654	.	voice
.	.	8B-	her	.	.	.	.
.	.	4r	.	.	.	.	.
=43	=43	=43	=43	=43	=43	=43	=43
2B-M	B-:maj	8d	Help	.	82.629	.	voice
.	.	8d	me	.	.	.	.
.	.	8d	build	.	.	.	.
.	.	16d	a	.	.	.	.
.	.	8.c	moun-	.	.	.	.
2FM	F:maj/3	.	.	.	83.603	.	voice
.	.	8c	-tain	.	.	.	.
.	.	8c	from	.	.	.	.
.	.	8c	a	.	.	.	.
=44	=44	=44	=44	=44	=44	=44	=44
*M2/4	*M2/4	*M2/4	*	*	*M2/4	*M2/4	*M2/4
2E-M	E-:maj	8e-	li-	.	84.577	.	voice
.	.	8e-	-ttle	.	.	.	.
.	.	8e-	pot	.	.	.	.
.	.	8e-	of	.	.	.	.
=45	=45	=45	=45	=45	=45	=45	=45
*M4/4	*M4/4	*M4/4	*	*	*M4/4	*M4/4	*M4/4
*D:	*D:	*D:	*	*	*D:	*D:	*D:
1GM	G:maj	[2d	clay	C	85.551	newline	voice
.	.	8d]	_	.	.	.	.
.	.	8c#	hey	C	.	.	.
.	.	8d	hey	C	.	.	.
.	.	[8e	hey	C	.	.	.
=46	=46	=46	=46	=46	=46	=46	=46
1AM	A:maj	2.e]	_	.	87.464	.	voice
.	.	4r	.	.	.	.	.
=47	=47	=47	=47	=47	=47	=47	=47
1AM	A:maj	2r	.	.	89.378	.	voice
.	.	4r	.	.	.	.	.
.	.	8B	Well	.	.	.	.
.	.	8d	she	.	.	.	.
=48	=48	=48	=48	=48	=48	=48	=48
*>Letter>B	*>Letter>B	*>Letter>B	*>Letter>B	*>Letter>B	*>Letter>B	*>Letter>B	*>Letter>B
*>Label>Verse	*>Label>Verse	*>Label>Verse	*>Label>Verse	*>Label>Verse	*>Label>Verse	*>Label>Verse	*>Label>Verse
1Em	E:min	8e	knows	.	91.292	newline	voice
.	.	8e	what	.	.	.	.
.	.	8e	I'm	.	.	.	.
.	.	8d	a-	.	.	.	.
.	.	8e	-bout	G	.	.	.
.	.	8r	.	.	.	.	.
.	.	8B	She	.	.	.	.
.	.	8d	can	.	.	.	.
=49	=49	=49	=49	=49	=49	=49	=49
1AM	A:sus4(b7,9)	8e	take	.	93.261	.	voice
.	.	16d	what	.	.	.	.
.	.	8.d	I	.	.	.	.
.	.	8d	dish	.	.	.	.
.	.	8e	out	G	.	.	.
.	.	8B	And	.	.	.	.
.	.	8d	that's	.	.	.	.
.	.	8d	not	.	.	.	.
=50	=50	=50	=50	=50	=50	=50	=50
1DMM	D:maj7	4d	ea-	(H	95.23	.	voice
.	.	8B	-sy	h)	.	.	.
.	.	8r	.	.	.	.	.
.	.	2r	.	.	.	.	.
=51	=51	=51	=51	=51	=51	=51	=51
1DMM	D:maj7	2r	.	.	97.199	.	voice
.	.	4r	.	.	.	.	.
.	.	8B	Well	.	.	.	.
.	.	8d	she	.	.	.	.
=52	=52	=52	=52	=52	=52	=52	=52
1Em	E:min	8e	knows	.	99.167	newline	voice
.	.	8e	me	.	.	.	.
.	.	8e	through	J	.	.	.
.	.	8d	and	.	.	.	.
.	.	4e	through	J	.	.	.
.	.	8B	and	.	.	.	.
.	.	16d	she	.	.	.	.
.	.	[16f#	knows	.	.	.	.
=53	=53	=53	=53	=53	=53	=53	=53
1AM	A:sus4(b7,9)	8f#]	_	.	101.113	.	voice
.	.	8e	just	.	.	.	.
.	.	8d	what	.	.	.	.
.	.	8d	to	j	.	.	.
.	.	8e	do	J	.	.	.
.	.	8B	and	.	.	.	.
.	.	8d	how	.	.	.	.
.	.	8d	to	.	.	.	.
=54	=54	=54	=54	=54	=54	=54	=54
1Bm	B:min	4..d	please	(H	103.059	.	voice
.	.	16B	me	h)	.	.	.
.	.	2r	.	.	.	.	.
=55	=55	=55	=55	=55	=55	=55	=55
1Bm	B:min	2r	.	.	105.005	.	voice
.	.	4r	.	.	.	.	.
.	.	8B	She's	.	.	.	.
.	.	8d	a	.	.	.	.
=56	=56	=56	=56	=56	=56	=56	=56
*>Letter>C	*>Letter>C	*>Letter>C	*>Letter>C	*>Letter>C	*>Letter>C	*>Letter>C	*>Letter>C
*>Label>Chorus	*>Label>Chorus	*>Label>Chorus	*>Label>Chorus	*>Label>Chorus	*>Label>Chorus	*>Label>Chorus	*>Label>Chorus
1Em	E:min	4.e	la-	.	106.951	newline	voice
.	.	8~e	-dy	.	.	.	.
.	.	4.r	.	.	.	.	.
.	.	8f#	Oh	.	.	.	.
=57	=57	=57	=57	=57	=57	=57	=57
1AM	A:sus4(b7,9)	8e	_	.	108.915	.	voice
.	.	8e	woh	.	.	.	.
.	.	8d	_	.	.	.	.
.	.	4.d	oh	.	.	.	.
.	.	8d	she's	.	.	.	.
.	.	8B	a	.	.	.	.
=58	=58	=58	=58	=58	=58	=58	=58
1DMM	D:maj7	4d	la-	.	110.878	.	voice
.	.	8~d	-dy	.	.	.	.
.	.	8r	.	.	.	.	.
.	.	2r	.	.	.	.	.
=59	=59	=59	=59	=59	=59	=59	=59
1DMM	D:maj7	8dd	Talk-	.	112.841	.	voice
.	.	8cc#	-ing	.	.	.	.
.	.	8~b	a-	.	.	.	.
.	.	4~cc#	-bout	.	.	.	.
.	.	8B	the	.	.	.	.
.	.	8d	li-	.	.	.	.
.	.	8B	-ttle	.	.	.	.
=60	=60	=60	=60	=60	=60	=60	=60
1Em	E:min	4d	la-	.	114.805	newline	voice
.	.	8~d	-dy	.	.	.	.
.	.	8r	.	.	.	.	.
.	.	2r	.	.	.	.	.
=61	=61	=61	=61	=61	=61	=61	=61
1AM	A:sus4(b7,9)	4r	.	.	116.744	.	voice
.	.	8A	and	.	.	.	.
.	.	8B	the	.	.	.	.
.	.	8B	la-	.	.	.	.
.	.	8d	-dy	.	.	.	.
.	.	8d	is	.	.	.	.
.	.	8B	uh	.	.	.	.
=62	=62	=62	=62	=62	=62	=62	=62
1Bm	B:min	16d	mine	.	118.683	.	voice
.	.	16A	_	.	.	.	.
.	.	[4.B	_	.	.	.	.
.	.	2B]	_	.	.	.	.
=63	=63	=63	=63	=63	=63	=63	=63
1Bm	B:min	8f#	Yeah	.	120.622	.	voice
.	.	8a	_	.	.	.	.
.	.	8f#	yeah	.	.	.	.
.	.	8e	_	.	.	.	.
.	.	4d	_	.	.	.	.
.	.	8B	She's	.	.	.	.
.	.	8d	a	.	.	.	.
=64	=64	=64	=64	=64	=64	=64	=64
*>Letter>C	*>Letter>C	*>Letter>C	*>Letter>C	*>Letter>C	*>Letter>C	*>Letter>C	*>Letter>C
*>Label>Outro	*>Label>Outro	*>Label>Outro	*>Label>Outro	*>Label>Outro	*>Label>Outro	*>Label>Outro	*>Label>Outro
1Em	E:min	4e	la-	.	122.56	newline	voice
.	.	8~e	-dy	.	.	.	.
.	.	8r	.	.	.	.	.
.	.	4.r	.	.	.	.	.
.	.	[8f#	Oh	.	.	.	.
=65	=65	=65	=65	=65	=65	=65	=65
1AM	A:sus4(b7,9)	4f#]	_	.	124.547	.	voice
.	.	8e	woh	.	.	.	.
.	.	8d	_	.	.	.	.
.	.	4d	oh	.	.	.	.
.	.	8d	she's	.	.	.	.
.	.	8B	a	.	.	.	.
=66	=66	=66	=66	=66	=66	=66	=66
1DMM	D:maj7	4d	la-	.	126.534	.	voice
.	.	8~d	-dy	.	.	.	.
.	.	8r	.	.	.	.	.
.	.	4.r	.	.	.	.	.
.	.	8d	Lis-	.	.	.	.
=67	=67	=67	=67	=67	=67	=67	=67
1DMM	D:maj7	8d	-ten	.	128.521	.	voice
.	.	8d	to	.	.	.	.
.	.	8d	me	.	.	.	.
.	.	8f#	pe-	.	.	.	.
.	.	8e	-ople	.	.	.	.
.	.	8d	she's	.	.	.	.
.	.	8d	a	.	.	.	.
.	.	[8e	la-	.	.	.	.
=68	=68	=68	=68	=68	=68	=68	=68
1Em	E:min	4e]	_	.	130.508	newline	voice
.	.	8~e	-dy	.	.	.	.
.	.	8r	.	.	.	.	.
.	.	4.r	.	.	.	.	.
.	.	[8f#	Yeah	.	.	.	.
=69	=69	=69	=69	=69	=69	=69	=69
1AM	A:sus4(b7,9)	8f#]	_	.	132.463	.	voice
.	.	4a	yeah	.	.	.	.
.	.	8b	yeah	.	.	.	.
.	.	4a	_	.	.	.	.
.	.	8d	she's	.	.	.	.
.	.	8B	a	.	.	.	.
=70	=70	=70	=70	=70	=70	=70	=70
1DMM	D:maj7	4d	la-	.	134.419	.	voice
.	.	8~d	-dy	.	.	.	.
.	.	8r	.	.	.	.	.
.	.	4.r	.	.	.	.	.
.	.	[8D	Woh	.	.	.	.
=71	=71	=71	=71	=71	=71	=71	=71
1DMM	D:maj7	8D]	_	.	136.374	.	voice
.	.	8F#	_	.	.	.	.
.	.	8F#	woh	.	.	.	.
.	.	8A	_	.	.	.	.
.	.	8A	woh	.	.	.	.
.	.	8B	_	.	.	.	.
.	.	8e	She's	.	.	.	.
.	.	8d	a	.	.	.	.
=72	=72	=72	=72	=72	=72	=72	=72
1Em	E:min	4e	la-	.	138.329	newline	voice
.	.	8~e	-dy	.	.	.	.
.	.	8r	.	.	.	.	.
.	.	4.r	.	.	.	.	.
.	.	[8f#	Talk-	.	.	.	.
=73	=73	=73	=73	=73	=73	=73	=73
1AM	A:sus4(b7,9)	8f#]	_	.	140.109	.	voice
.	.	8e	-ing	.	.	.	.
.	.	8d	a-	.	.	.	.
.	.	8e	-bout	.	.	.	.
.	.	8r	.	.	.	.	.
.	.	8B	the	.	.	.	.
.	.	8d	li-	.	.	.	.
.	.	8B	-ttle	.	.	.	.
=74	=74	=74	=74	=74	=74	=74	=74
1Bm	B:min	4d	la-	.	141.889	.	voice
.	.	8~d	-dy	.	.	.	.
.	.	8r	.	.	.	.	.
.	.	2r	.	.	.	.	.
=75	=75	=75	=75	=75	=75	=75	=75
1Bm	B:min	8D	Woh	.	143.67	.	voice
.	.	8F#	_	.	.	.	.
.	.	8F#	woh	.	.	.	.
.	.	8A	_	.	.	.	.
.	.	8A	woh	.	.	.	.
.	.	8B	_	.	.	.	.
.	.	8B	woh	.	.	.	.
.	.	8d	_	.	.	.	.
=76	=76	=76	=76	=76	=76	=76	=76
1Em	E:min	8d	woh	.	.	newline	voice
.	.	8e	_	.	.	.	.
.	.	8e	woh	.	.	.	.
.	.	8f#	_	.	.	.	.
.	.	8f#	woh	.	.	.	.
.	.	8a	_	.	.	.	.
.	.	8a	woh	.	.	.	.
.	.	8b	_	.	.	.	.
=77	=77	=77	=77	=77	=77	=77	=77
1AM	A:sus4(b7,9)	8b	woh	.	.	.	voice
.	.	8a	_	.	.	.	.
.	.	8a	woh	.	.	.	.
.	.	8f#	_	.	.	.	.
.	.	16f#	woh	.	.	.	.
.	.	16e	_	.	.	.	.
.	.	8d	_	.	.	.	.
.	.	8d	She's	.	.	.	.
.	.	8B	a	.	.	.	.
=78	=78	=78	=78	=78	=78	=78	=78
1DMM	D:maj7	4d	la-	.	.	.	voice
.	.	8~d	-dy	.	.	.	.
.	.	8r	.	.	.	.	.
.	.	2r	.	.	.	.	.
1r;	1r	r;	.	.	145.45	.	r
1r;	1r	r;	.	.	149.603	.	r
*-	*-	*-	*-	*-	*-	*-	*-
!!!BillboardChartDate: 1971/02/20, 1971/04/17
!!!BillboardPeak: 2, 2
!!!BillboardWeeksOnChart: 14, 14
!!!COC: Tom Jones
!!!EMD: Added three measures to fade out, to match melodic transcription. -Nat
!!!ENC: Nathaniel Condit-Schultz
!!!EST: Awating manual error checking and editing.
!!!OTL: She's A Lady
!!!RDF**chordsym: original McGill chord annotation + (implied pitch class set, with bass pitch in first position)
!!!RDF**harmony: **recip + pitch class of root + harmonic quality
!!!RDF**leadinstrument: original McGill primary instrumentation annotation
!!!RDF**phrase: newline = linebreak in original McGill transcription
!!!RDF**timestamp: McGill audio timestamp in seconds
!!!RDT: 2017/01/12/
!!!SampleActualRank: 24,  4
!!!SampleID#: 210, 260
!!!SampleTargetRank: 22,  4
!!!MBID: 366fa44b-7e22-45ff-8471-4e6eb81ebc7c
